icons/glyphs/glyph-haskell.svg

<?xml version="1.0" encoding="UTF-8" standalone="no"?><svg height="16mm" viewBox="0 0 16 16" width="16mm" xmlns="http://www.w3.org/2000/svg"><sodipodi:namedview/><metadata><rdf:RDF><cc:Work><dc:format>image/svg+xml</dc:format><dc:type/><dc:title/></cc:Work></rdf:RDF></metadata><path d="m0 0 16.492188 30.236328-16.492188 30.236328h8.2460938l16.4921872-30.236328-16.4921872-30.236328zm16.492188 0 16.492187 30.236328-16.492187 30.236328h8.246093l12.369141-22.677734 12.36914 22.677734h8.248047l-32.986328-60.472656zm28.486328 21.990234 3 5.498047h12.49414v-5.498047zm5.996093 10.994141 3.001953 5.498047h6.496094v-5.498047z" fill="#d0d0d0" stroke-width="2.748747" transform="scale(.26458333)"/></svg>

<?xml version="1.0" encoding="UTF-8" standalone="no"?>
<!-- Created with Inkscape (http://www.inkscape.org/) -->

<svg
   xmlns:dc="http://purl.org/dc/elements/1.1/"
   xmlns:cc="http://creativecommons.org/ns#"
   xmlns:rdf="http://www.w3.org/1999/02/22-rdf-syntax-ns#"
   xmlns:svg="http://www.w3.org/2000/svg"
   xmlns="http://www.w3.org/2000/svg"
   xmlns:sodipodi="http://sodipodi.sourceforge.net/DTD/sodipodi-0.dtd"
   xmlns:inkscape="http://www.inkscape.org/namespaces/inkscape"
   width="16mm"
   height="16mm"
   viewBox="0 0 16 16"
   version="1.1"
   id="svg8"
   inkscape:version="0.92+devel (7f3bd2b258, 2017-08-07, custom)"
   sodipodi:docname="glyph-haskell.svg">
  <defs
     id="defs2" />
  <sodipodi:namedview
     id="base"
     pagecolor="#002466"
     bordercolor="#ffffff"
     borderopacity="0.38039216"
     inkscape:pageopacity="1"
     inkscape:pageshadow="2"
     inkscape:zoom="7.1685545"
     inkscape:cx="30.026973"
     inkscape:cy="30.23622"
     inkscape:document-units="mm"
     inkscape:current-layer="svg8"
     inkscape:document-rotation="0"
     showgrid="false"
     inkscape:showpageshadow="false"
     borderlayer="true"
     inkscape:window-width="1920"
     inkscape:window-height="1027"
     inkscape:window-x="0"
     inkscape:window-y="24"
     inkscape:window-maximized="1" />
  <metadata
     id="metadata5">
    <rdf:RDF>
      <cc:Work
         rdf:about="">
        <dc:format>image/svg+xml</dc:format>
        <dc:type
           rdf:resource="http://purl.org/dc/dcmitype/StillImage" />
        <dc:title />
      </cc:Work>
    </rdf:RDF>
  </metadata>
  <path
     style="fill:#d0d0d0;stroke-width:2.74874711"
     d="M 0 0 L 16.492188 30.236328 L 0 60.472656 L 8.2460938 60.472656 L 24.738281 30.236328 L 8.2460938 0 L 0 0 z M 16.492188 0 L 32.984375 30.236328 L 16.492188 60.472656 L 24.738281 60.472656 L 37.107422 37.794922 L 49.476562 60.472656 L 57.724609 60.472656 L 24.738281 0 L 16.492188 0 z M 44.978516 21.990234 L 47.978516 27.488281 L 60.472656 27.488281 L 60.472656 21.990234 L 44.978516 21.990234 z M 50.974609 32.984375 L 53.976562 38.482422 L 60.472656 38.482422 L 60.472656 32.984375 L 50.974609 32.984375 z "
     transform="scale(0.26458333)"
     id="path818"
     inkscape:label="#" />
</svg>
